packages/foundations/assets/icons/functional/images/editing/pin_28.svg

<svg width="28" height="28" viewBox="0 0 28 28" fill="none" xmlns="http://www.w3.org/2000/svg">
<g clip-path="url(#clip0_2622_94)">
<path fill-rule="evenodd" clip-rule="evenodd" d="M16.7357 1.57817C17.9406 2.74454 21.2131 5.97329 26.5515 11.2644C26.7077 11.4214 26.7986 11.6317 26.8058 11.8531C26.813 12.0744 26.7361 12.2902 26.5904 12.4571C26.4448 12.6239 26.2413 12.7293 26.0211 12.752C25.8008 12.7748 25.5801 12.7131 25.4035 12.5795L24.0988 11.2994L19.1875 16.1618C22.9955 20.7949 16.4015 26.2418 16.0838 26.499C15.9311 26.6227 15.7411 26.6913 15.5446 26.6938C15.3481 26.6964 15.1565 26.6327 15.0006 26.513L8.80033 20.3863L2.79083 26.3363C2.63277 26.4939 2.42045 26.5852 2.19733 26.5914C1.9742 26.5976 1.75714 26.5183 1.59056 26.3697C1.42398 26.2211 1.32048 26.0145 1.30125 25.7921C1.28201 25.5697 1.34849 25.3484 1.48708 25.1734L7.55608 19.156L1.45383 13.1133C1.31196 12.9732 1.22221 12.7888 1.19946 12.5906C1.1767 12.3925 1.2223 12.1926 1.32871 12.0239C2.41371 10.6904 7.33646 5.59704 11.8208 8.87567L16.7357 4.01067L15.5291 2.81542C15.3642 2.65215 15.271 2.43008 15.2698 2.19806C15.2687 1.96604 15.3597 1.74307 15.523 1.57817C15.5816 1.51954 16.1355 0.996294 16.7357 1.57817ZM3.28346 12.4623L15.5615 24.616C18.7115 21.5632 19.3581 18.9872 17.5013 16.8872L11.2451 10.6904C9.24133 8.67092 6.58746 9.26154 3.28346 12.4623ZM17.98 5.24179L13.1045 10.0683L17.98 14.8948L22.8555 10.0683L17.98 5.24179Z" fill="#282D37"/>
</g>
<defs>
<clipPath id="clip0_2622_94">
<rect width="28" height="28" fill="white"/>
</clipPath>
</defs>
</svg>

<svg xmlns="http://www.w3.org/2000/svg" width="28" height="28" fill="none"><g clip-path="url(#a)"><path fill="#282D37" fill-rule="evenodd" d="M16.736 1.578q1.807 1.75 9.816 9.686a.875.875 0 0 1-1.148 1.316l-1.305-1.28-4.911 4.862c3.808 4.633-2.786 10.08-3.104 10.337a.874.874 0 0 1-1.083.014l-6.2-6.127-6.01 5.95a.875.875 0 0 1-1.304-1.163l6.07-6.017-6.103-6.043a.875.875 0 0 1-.125-1.09C2.414 10.69 7.336 5.598 11.82 8.877l4.915-4.865-1.207-1.196a.875.875 0 0 1-.006-1.237c.059-.058.613-.582 1.213 0M3.283 12.462l12.279 12.154q4.725-4.58 1.94-7.729l-6.257-6.197Q8.24 7.661 3.283 12.462m14.697-7.22-4.876 4.826 4.876 4.827 4.875-4.827z" clip-rule="evenodd"/></g><defs><clipPath id="a"><path fill="#fff" d="M0 0h28v28H0z"/></clipPath></defs></svg>
